images/kyungran/hart-icon_blue.svg

<svg width="36" height="33" viewBox="0 0 36 33" fill="none" xmlns="http://www.w3.org/2000/svg">
<g clip-path="url(#clip0_309_36)">
<path d="M17.5312 9.78125L17.9609 10.25L18.4297 9.82031C19.7188 8.53125 21.5547 7.94531 23.3125 8.25781C26.0078 8.6875 28 11.0312 28 13.7656V13.9609C28 15.6016 27.2969 17.1641 26.125 18.2578L19.0547 24.8594C18.7812 25.1328 18.3906 25.25 18 25.25C17.5703 25.25 17.1797 25.1328 16.9062 24.8594L9.83594 18.2578C8.66406 17.1641 8 15.6016 8 13.9609V13.7656C8 11.0312 9.95312 8.6875 12.6484 8.25781C14.4062 7.94531 16.2422 8.53125 17.5312 9.78125C17.5312 9.82031 17.4922 9.78125 17.5312 9.78125ZM17.9609 12.9062L16.2031 11.1094C15.3438 10.2891 14.1328 9.89844 12.9609 10.0938C11.1641 10.4062 9.875 11.9297 9.875 13.7656V13.9609C9.875 15.0938 10.3047 16.1484 11.125 16.8906L18 23.2969L24.8359 16.8906C25.6562 16.1484 26.125 15.0938 26.125 13.9609V13.7656C26.125 11.9297 24.7969 10.4062 23 10.0938C21.8281 9.89844 20.6172 10.2891 19.7578 11.1094L17.9609 12.9062Z" fill="#1E6BF1"/>
</g>
<defs>
<clipPath id="clip0_309_36">
<rect width="36" height="33" fill="white"/>
</clipPath>
</defs>
</svg>

<svg width="36" height="33" fill="none" xmlns="http://www.w3.org/2000/svg"><g clip-path="url(#a)"><path d="m17.531 9.781.43.469.469-.43c1.289-1.289 3.125-1.875 4.883-1.562A5.582 5.582 0 0 1 28 13.766v.195c0 1.64-.703 3.203-1.875 4.297l-7.07 6.601c-.274.274-.664.391-1.055.391-.43 0-.82-.117-1.094-.39l-7.07-6.602C8.664 17.164 8 15.602 8 13.96v-.195c0-2.735 1.953-5.079 4.648-5.508 1.758-.313 3.594.273 4.883 1.523 0 .04-.039 0 0 0Zm.43 3.125-1.758-1.797a3.82 3.82 0 0 0-3.242-1.015 3.697 3.697 0 0 0-3.086 3.672v.195c0 1.133.43 2.187 1.25 2.93L18 23.297l6.836-6.406a3.93 3.93 0 0 0 1.289-2.93v-.195c0-1.836-1.328-3.36-3.125-3.672a3.82 3.82 0 0 0-3.242 1.015l-1.797 1.797Z" fill="#1E6BF1"/></g><defs><clipPath id="a"><path fill="#fff" d="M0 0h36v33H0z"/></clipPath></defs></svg>
